packages/foundations/assets/icons/functional/images/communication/speech_bubble_question_mark_24.svg

<svg width="24" height="24" viewBox="0 0 24 24" fill="none" xmlns="http://www.w3.org/2000/svg">
<g clip-path="url(#clip0_185_503)">
<path fill-rule="evenodd" clip-rule="evenodd" d="M18.9953 2C20.6385 2 22 3.3615 22 5.0047V15.0047C22 16.6479 20.6385 17.9859 18.9953 17.9859H7.9624C7.6808 17.9859 7.446 18.0798 7.2582 18.2676L3.6901 21.7183C3.5023 21.9061 3.2676 22 3.0094 22C2.493 22 2 21.6009 2 20.9906V5.0047C2 3.3615 3.3615 2 5.0047 2H18.9953ZM18.9953 4.0188H5.0047C4.4413 4.0188 4.0188 4.4413 4.0188 5.0047V18.7136L5.8732 16.9061C6.4131 16.4131 7.0704 16.0845 7.7746 16.061H18.9953C19.5587 16.061 19.9812 15.615 19.9812 15.0516V5.0047C19.9812 4.4413 19.5587 4.0188 18.9953 4.0188ZM11.9952 12.52C12.561 12.52 12.9903 12.9493 12.9903 13.4956C12.9903 14.042 12.561 14.4908 11.9952 14.4908C11.4293 14.4908 11 14.042 11 13.4956C11 12.9493 11.4293 12.52 11.9952 12.52ZM12.237 5.5C13.653 5.5 14.7504 6.2608 14.7504 7.6466C14.7504 8.69792 14.2338 9.2808 13.7602 9.70238C13.168 10.2279 13.0023 10.32 13 10.6122V11.6269H10.9993V10.6122C10.9993 9.80236 11.4055 9.4004 11.8293 9.09385L12.28 8.78226C12.5602 8.57974 12.775 8.36758 12.775 8.0256C12.775 7.7439 12.6293 7.4903 12.0716 7.4903C11.5931 7.4903 11.0395 7.677 10.61 7.915L9.93 6.1501C10.8697 5.7167 11.6387 5.5 12.237 5.5Z" fill="#1A1C1F"/>
</g>
<defs>
<clipPath id="clip0_185_503">
<rect width="24" height="24" fill="white"/>
</clipPath>
</defs>
</svg>

<svg xmlns="http://www.w3.org/2000/svg" width="24" height="24" fill="none"><g clip-path="url(#a)"><path fill="#1A1C1F" fill-rule="evenodd" d="M18.995 2A3.026 3.026 0 0 1 22 5.005v10c0 1.643-1.361 2.98-3.005 2.98H7.962a.96.96 0 0 0-.704.283l-3.568 3.45a.94.94 0 0 1-.68.282C2.492 22 2 21.6 2 20.99V5.006A3.026 3.026 0 0 1 5.005 2zm0 2.019H5.005a.963.963 0 0 0-.986.986v13.709l1.854-1.808c.54-.493 1.197-.822 1.902-.845h11.22c.564 0 .986-.446.986-1.01V5.006a.963.963 0 0 0-.986-.986m-7 8.501c.566 0 .995.43.995.976s-.429.995-.995.995a.987.987 0 0 1-.995-.995c0-.547.43-.976.995-.976m.242-7.02c1.416 0 2.513.76 2.513 2.147 0 1.05-.516 1.634-.99 2.055-.592.526-.758.618-.76.91v1.015h-2v-1.015c0-.81.406-1.212.83-1.518l.45-.312c.28-.202.495-.414.495-.756 0-.282-.146-.536-.703-.536-.479 0-1.032.187-1.462.425L9.93 6.15q1.41-.65 2.307-.65" clip-rule="evenodd"/></g><defs><clipPath id="a"><path fill="#fff" d="M0 0h24v24H0z"/></clipPath></defs></svg>
